components/ui-node-icon/src/postgresOutput/postgresOutput.large.svg

<svg width="32" height="32" viewBox="0 0 32 32" fill="none" xmlns="http://www.w3.org/2000/svg">
  <path fill-rule="evenodd" clip-rule="evenodd" d="M18.8027 2.47017C19.8795 2.16631 20.9943 2.00809 22.1157 2V2.0035C22.1819 2.00233 22.248 2.0035 22.3141 2.00467C24.4475 2.028 27.2049 2.70001 29.1663 5.13136C29.794 5.90953 29.8794 6.80904 29.8638 7.82522C29.8482 8.84139 29.6594 10.0034 29.3226 11.2634C28.7596 13.3769 27.777 15.7624 26.4088 18.0137C26.5521 18.0234 26.694 18.038 26.8344 18.0576C27.1631 18.03 27.4898 17.9815 27.8122 17.9123C27.8718 17.9003 27.931 17.8868 27.9901 17.8732C28.4097 17.777 28.8327 17.68 29.4597 18.1421C29.8169 18.4046 30.0322 18.974 29.9961 19.338C29.9903 19.3966 29.982 19.4513 29.9716 19.5025C31.2156 20.6019 32 22.2093 32 24C32 27.3137 29.3137 30 26 30C24.5973 30 23.3069 29.5186 22.2852 28.7121C21.4719 29.4493 20.4602 29.7335 19.6312 29.9058C18.1822 30.2068 16.9099 29.7529 16.2605 29.0249C15.7077 28.4062 15.5061 27.7174 15.4213 27.4275C15.4064 27.3768 15.3952 27.3383 15.3862 27.3146C15.027 26.3744 14.984 25.3072 14.9374 24.1533L14.9317 24.0105L14.9286 23.9359V23.9358V23.9358C14.914 23.5798 14.8995 23.227 14.8872 22.8672C14.5312 23.02 14.174 23.1274 13.8349 23.1822C12.8392 23.3467 11.989 23.1857 11.4923 23.0655C11.2158 23.0002 10.9488 22.901 10.6746 22.7552L10.6664 22.7508C10.4509 22.6365 10.2148 22.5113 9.99396 22.229C9.53458 22.5989 9.00185 22.8497 8.4126 22.873C7.57321 22.9069 6.8613 22.4962 6.3442 22.0073C5.3088 21.032 4.64619 19.597 4.0413 17.9986C3.43642 16.4015 2.95179 14.6503 2.60665 13.1546C2.26152 11.6589 2.05348 10.5039 2.0174 9.79574C1.88512 7.22905 2.51286 5.34253 3.69978 4.12335C4.89031 2.90417 6.49692 2.47017 7.96885 2.392C10.0829 2.28 12.0888 2.84117 13.0557 3.16668C14.037 2.61134 15.2539 2.27767 16.6705 2.301C17.3602 2.31269 18.0477 2.37706 18.7269 2.4935L18.8027 2.47017ZM28.5157 11.0254C27.9356 13.2033 26.8789 15.7151 25.4036 18.0293C24.8932 18.0796 24.4015 18.194 23.9367 18.3642C23.8762 18.2842 23.814 18.2055 23.75 18.1281C23.4206 17.7405 23.1508 17.3087 22.9491 16.846C22.8525 16.6549 22.7494 16.4669 22.64 16.2825L22.5811 16.1793L22.581 16.1793L22.581 16.1792C22.4317 15.9183 22.2528 15.6055 22.0664 15.2593C21.6431 14.4718 21.1825 13.5174 20.9432 12.5876C20.7051 11.6589 20.6703 10.6976 21.2812 10.0197C21.8223 9.41773 22.7723 9.16806 24.1986 9.30807C24.1867 9.27366 24.1762 9.24092 24.1657 9.20799L24.1657 9.20798C24.1387 9.12367 24.1113 9.03819 24.0603 8.92073C23.7378 8.18442 23.3169 7.49248 22.8084 6.86271C21.5998 5.36353 19.6433 3.87718 16.62 3.82935H16.4817V3.82702C15.0603 3.83052 14.0406 4.24702 13.2673 4.87119C12.47 5.51636 11.9349 6.39954 11.5837 7.30371C11.1664 8.37706 11.0233 9.4154 10.9668 10.1201L10.9825 10.1107C11.4118 9.8774 11.9758 9.64407 12.5795 9.50873C13.1831 9.37457 13.8337 9.33257 14.423 9.55423C15.0122 9.7759 15.4993 10.2974 15.676 11.0884C16.3951 14.3159 15.7027 15.8213 15.2272 16.855C15.1429 17.0384 15.0654 17.2068 15.0038 17.3675C14.8487 17.754 14.7158 18.1485 14.6058 18.5493L14.6368 18.5421C14.6782 18.5324 14.7195 18.5227 14.7609 18.519C15.0495 18.4956 15.2756 18.589 15.4103 18.645C15.8215 18.8106 16.1041 19.1583 16.2569 19.555C16.2966 19.6588 16.3254 19.7708 16.3423 19.8863C16.36 19.9338 16.3682 19.9841 16.3663 20.0345C16.3207 21.4879 16.3259 22.9424 16.3819 24.3955C16.4096 25.0232 16.4505 25.5762 16.5022 26.0125C16.5539 26.4477 16.6273 26.7791 16.6742 26.8911C16.8281 27.2644 17.053 27.7532 17.4594 28.0857C17.8659 28.4171 18.4491 28.6387 19.5146 28.4171C20.3439 28.2442 20.8881 28.0112 21.2666 27.6875C21.4292 27.896 21.6053 28.0934 21.7936 28.2786C21.2785 28.7166 20.5845 28.9936 19.6842 29.1812C18.4359 29.4414 17.5256 29.1614 16.9387 28.6819C16.3531 28.2036 16.0849 27.5689 15.9238 27.1804C15.8131 26.9121 15.7554 26.5644 15.7001 26.1C15.6448 25.6357 15.6039 25.0675 15.5762 24.427C15.5394 23.4463 15.5274 22.4648 15.5401 21.4835C15.0187 21.9468 14.3708 22.2547 13.6738 22.3702C12.8452 22.5067 12.1056 22.3725 11.6643 22.2652C11.4467 22.2122 11.2367 22.1334 11.039 22.0307C10.8345 21.9245 10.6397 21.8043 10.5099 21.5675C10.4335 21.4319 10.4093 21.2744 10.4413 21.123C10.482 20.9696 10.5742 20.8337 10.7035 20.7368C10.9416 20.549 11.2566 20.444 11.7317 20.3483C12.5963 20.1757 12.8981 20.0578 13.0821 19.9167C13.1868 19.8354 13.3007 19.6986 13.4585 19.5092C13.5363 19.4158 13.6247 19.3096 13.7279 19.191C13.7264 19.1751 13.7252 19.1591 13.7243 19.1432C13.1647 19.1279 12.6168 18.9848 12.1249 18.7255C11.9445 18.9098 11.0233 19.8548 9.90016 21.1662C9.42755 21.7145 8.90564 22.0295 8.35487 22.0517C7.8041 22.075 7.30624 21.8055 6.88294 21.4077C6.03755 20.6108 5.36291 19.24 4.77486 17.6906C4.18802 16.1413 3.7106 14.4158 3.37148 12.9458C3.03116 11.4758 2.83033 10.2904 2.80147 9.71874C2.6752 7.28971 3.26085 5.65287 4.26498 4.62036C5.27032 3.58785 6.64845 3.19701 7.9917 3.12234C10.4028 2.98818 12.6925 3.80368 13.1555 3.97868C14.0478 3.39068 15.1974 3.02434 16.6333 3.04768C17.3149 3.05695 17.9932 3.14229 18.6548 3.30201L18.6788 3.29151C18.97 3.19221 19.2667 3.10886 19.5675 3.04184C20.3843 2.85699 21.2194 2.7588 22.058 2.74901L22.0592 2.74667C24.0771 2.72801 26.6554 3.27751 28.5061 5.57237C28.9222 6.08804 29.0461 6.84171 29.0316 7.77039C29.016 8.69789 28.8392 9.80857 28.5157 11.0254ZM29.0448 18.8289C28.8887 18.7367 28.728 18.6515 28.5632 18.5735C28.6947 18.5881 28.8195 18.633 28.9462 18.7267C28.9832 18.757 29.0162 18.7913 29.0448 18.8289ZM22.0664 3.52835H22.242V3.52718C24.0723 3.54118 26.2561 4.05102 27.87 6.05304C28.0756 6.30737 28.2367 6.91638 28.2247 7.75638C28.2103 8.59639 28.0455 9.6569 27.7353 10.8271C27.1556 13.0006 26.0685 15.5498 24.5605 17.854C24.5514 17.8429 24.5425 17.8317 24.5335 17.8206C24.5275 17.8131 24.5214 17.8055 24.5153 17.7979C24.4854 17.7606 24.4555 17.7233 24.4234 17.686C24.9934 16.7678 25.0993 15.8321 25.056 14.9804C25.0361 14.5867 24.9897 14.2073 24.9456 13.8461V13.8461L24.9456 13.8461C24.8881 13.3757 24.8343 12.9362 24.8479 12.5363C24.8617 12.1071 24.9199 11.7326 24.9777 11.3607C25.0513 10.8874 25.1243 10.4182 25.1041 9.8459C25.1045 9.84454 25.1057 9.84247 25.107 9.84025C25.109 9.83676 25.1113 9.83288 25.1113 9.83074C25.1305 9.75257 25.1281 9.70707 25.1257 9.66273C25.1197 9.57407 25.1029 9.4889 25.0776 9.3874C25.0271 9.18556 24.9381 8.9254 24.8058 8.61739C24.4561 7.81562 23.9984 7.06238 23.4445 6.37737C22.6473 5.38803 21.5156 4.39635 20.0173 3.75235C20.6911 3.6127 21.3775 3.53767 22.0664 3.52835ZM8.0374 3.90052C8.18855 3.89237 8.34089 3.88771 8.49324 3.88768C8.64561 3.88788 8.79796 3.89177 8.95014 3.89935C10.3692 3.96702 11.6799 4.32635 12.4183 4.56202C11.6667 5.27603 11.1652 6.15804 10.8285 7.02605C10.3568 8.28876 10.1159 9.62166 10.1166 10.9647V10.9659L10.1178 10.9729V10.9787C10.1176 10.9861 10.1176 10.9935 10.1178 11.0009C10.1178 11.1165 10.127 11.2634 10.1384 11.4461C10.1525 11.6709 10.17 11.9501 10.1779 12.2924C10.1924 12.9294 10.1755 13.7356 10.0517 14.5978C9.94883 15.2754 10.0235 15.9672 10.2687 16.6095C10.514 17.2517 10.922 17.8238 11.4551 18.2728C10.7038 19.0468 9.97785 19.8437 9.27844 20.6622C8.89482 21.109 8.58095 21.2548 8.32 21.2665C8.06025 21.277 7.77404 21.1522 7.44454 20.843C6.79035 20.2247 6.10128 18.918 5.53247 17.4165C4.96487 15.915 4.49226 14.2151 4.15916 12.7708C3.82484 11.3264 3.63003 10.1107 3.60718 9.67674C3.48933 7.38421 4.03048 5.99937 4.85303 5.1547C5.67438 4.31002 6.82282 3.96818 8.0374 3.90052ZM21.8884 10.5319C22.129 10.2647 22.5871 10.0606 23.4037 10.0501C23.7012 10.0503 23.9985 10.069 24.2936 10.1061C24.2849 10.4725 24.2344 10.8114 24.1804 11.1734C24.1213 11.5698 24.058 11.994 24.041 12.5129C24.0237 13.0215 24.0871 13.5262 24.1497 14.0255C24.1917 14.3601 24.2334 14.6922 24.2503 15.0213C24.2827 15.684 24.2262 16.3198 23.9099 16.9673C23.8354 16.839 23.762 16.7013 23.6959 16.545C23.6322 16.3957 23.5329 16.2237 23.3997 15.9929L23.3997 15.9928L23.3447 15.8975L23.2994 15.8185C23.1481 15.5549 22.9675 15.2404 22.7819 14.8941C22.3731 14.1323 21.9377 13.2153 21.7273 12.3951C21.5156 11.5761 21.5481 10.9111 21.8884 10.5319ZM12.761 10.2706C13.0039 10.2155 13.2524 10.1865 13.5018 10.1842C13.7162 10.1797 13.9297 10.2129 14.132 10.2822C14.4927 10.4176 14.7549 10.6579 14.8872 11.2529C15.5566 14.258 15.0149 15.4144 14.5313 16.4467C14.4303 16.6624 14.3318 16.8727 14.2474 17.0933L14.1877 17.2478C14.0401 17.6291 13.8986 17.9946 13.8085 18.3556C12.0551 18.3533 10.5628 16.7013 10.8502 14.7063C10.9825 13.7881 10.9993 12.9399 10.9849 12.2749C10.9744 11.8351 10.9533 11.4973 10.9396 11.2796C10.9344 11.1965 10.9303 11.1308 10.9283 11.0837L10.9548 11.0604C11.0865 10.9602 11.227 10.8712 11.3745 10.7944C11.8106 10.5608 12.2769 10.3847 12.761 10.2706ZM23.0826 10.4222H23.0225V10.4187C22.9611 10.4199 22.8962 10.4246 22.83 10.4339C22.6533 10.4596 22.4969 10.5062 22.3815 10.5692C22.328 10.5951 22.2802 10.6307 22.2408 10.6742C22.2223 10.6945 22.2083 10.7182 22.1996 10.7439C22.191 10.7695 22.1878 10.7967 22.1903 10.8236C22.2009 10.8788 22.2271 10.9301 22.266 10.9717C22.311 11.0247 22.3637 11.0711 22.4224 11.1094C22.5658 11.2072 22.7414 11.25 22.9154 11.2296C23.0942 11.1996 23.2576 11.1126 23.3796 10.9822C23.4319 10.9302 23.4764 10.8713 23.5119 10.8072C23.5417 10.7599 23.5563 10.7051 23.554 10.6497L23.5552 10.6404C23.5502 10.6141 23.5396 10.5891 23.5241 10.567C23.5086 10.5449 23.4884 10.5262 23.465 10.5121C23.4193 10.4829 23.364 10.4619 23.299 10.4479C23.2353 10.4327 23.1619 10.4246 23.0826 10.4222ZM13.8181 10.6334C13.7495 10.6241 13.6822 10.6182 13.6185 10.6182L13.6173 10.6229C13.4923 10.6168 13.3672 10.6326 13.2481 10.6696C13.1435 10.7057 13.0364 10.7711 13.0184 10.8971C13.0107 10.9693 13.0281 11.042 13.0677 11.1036C13.1053 11.1736 13.1531 11.238 13.2096 11.2949C13.3423 11.4362 13.5203 11.5299 13.7147 11.5609C13.9049 11.5836 14.097 11.5366 14.2534 11.4291C14.3182 11.3871 14.3762 11.336 14.4254 11.2774C14.4727 11.2272 14.504 11.1648 14.5156 11.0977C14.5194 11.0621 14.5156 11.0261 14.5044 10.992C14.4933 10.9579 14.4749 10.9264 14.4506 10.8994C14.406 10.8486 14.3517 10.8066 14.2907 10.7757C14.1656 10.7057 14.0021 10.6579 13.8181 10.6334ZM14.8306 19.2948H14.8559V19.2972C14.9411 19.3073 15.0239 19.331 15.1012 19.3672C15.2311 19.4197 15.4151 19.6075 15.4993 19.8257C15.5822 20.0438 15.5714 20.2468 15.4704 20.3845C14.8848 21.1813 14.1981 21.4882 13.5379 21.5978C12.8777 21.7063 12.2451 21.5978 11.8603 21.5045C11.7244 21.4707 11.5561 21.4088 11.425 21.3388C11.3886 21.3204 11.379 21.3113 11.3652 21.2984C11.3589 21.2925 11.3517 21.2858 11.3408 21.277C11.449 21.2268 11.6114 21.165 11.8952 21.109C12.7911 20.9305 13.2397 20.7882 13.5848 20.5222C13.7957 20.3589 13.9325 20.1887 14.1025 19.9771C14.2107 19.8425 14.3324 19.6911 14.4951 19.5142C14.6743 19.3217 14.7669 19.3007 14.8306 19.2948ZM26 29C28.7614 29 31 26.7614 31 24C31 21.2386 28.7614 19 26 19C23.2386 19 21 21.2386 21 24C21 26.7614 23.2386 29 26 29ZM26.5 21.5C26.5 21.2239 26.2761 21 26 21C25.7239 21 25.5 21.2239 25.5 21.5V25.7929L24.3536 24.6464C24.1583 24.4512 23.8417 24.4512 23.6464 24.6464C23.4512 24.8417 23.4512 25.1583 23.6464 25.3536L25.6464 27.3536C25.8417 27.5488 26.1583 27.5488 26.3536 27.3536L28.3536 25.3536C28.5488 25.1583 28.5488 24.8417 28.3536 24.6464C28.1583 24.4512 27.8417 24.4512 27.6464 24.6464L26.5 25.7929V21.5Z" fill="var(--tbl--colors--brand--postgres)"/>
</svg>

<svg xmlns="http://www.w3.org/2000/svg" width="32" height="32" fill="none" viewBox="0 0 32 32">
  <path fill="var(--tbl--colors--brand--postgres)" fill-rule="evenodd" d="M18.803 2.47A12.535 12.535 0 0 1 22.116 2v.003c.066 0 .132 0 .198.002 2.134.023 4.89.695 6.852 3.126.628.779.713 1.678.698 2.694-.016 1.016-.205 2.178-.541 3.438-.563 2.114-1.546 4.5-2.914 6.75.143.01.285.025.425.045a7.75 7.75 0 0 0 1.156-.185c.42-.096.843-.193 1.47.27.357.262.572.831.536 1.195a1.634 1.634 0 0 1-.024.165 6 6 0 0 1-7.686 9.21c-.814.736-1.826 1.02-2.655 1.193-1.449.3-2.721-.153-3.37-.881-.553-.619-.755-1.308-.84-1.598-.015-.05-.026-.089-.035-.112-.359-.94-.402-2.008-.449-3.162l-.005-.142-.003-.075c-.015-.356-.03-.709-.042-1.069a4.53 4.53 0 0 1-1.052.315c-.996.165-1.846.004-2.343-.116a3.364 3.364 0 0 1-.817-.31l-.009-.005c-.215-.114-.451-.24-.672-.522-.46.37-.992.62-1.581.644-.84.034-1.552-.377-2.069-.866-1.035-.975-1.698-2.41-2.303-4.008-.605-1.598-1.09-3.349-1.434-4.844-.345-1.496-.554-2.651-.59-3.36-.132-2.566.496-4.452 1.683-5.672C4.89 2.904 6.497 2.47 7.969 2.392c2.114-.112 4.12.45 5.087.775.981-.556 2.198-.89 3.615-.866.69.012 1.377.076 2.056.192l.076-.023Zm9.713 8.555c-.58 2.178-1.637 4.69-3.112 7.004-.51.05-1.003.165-1.467.335a6.93 6.93 0 0 0-.187-.236c-.33-.387-.6-.82-.8-1.282-.098-.191-.2-.38-.31-.564l-.059-.103c-.15-.26-.328-.573-.515-.92-.423-.787-.883-1.742-1.123-2.671-.238-.93-.273-1.89.338-2.568.541-.602 1.491-.852 2.918-.712a4.263 4.263 0 0 1-.033-.1 2.784 2.784 0 0 0-.106-.287 9.067 9.067 0 0 0-1.252-2.058c-1.208-1.5-3.165-2.986-6.188-3.034h-.138v-.002c-1.422.004-2.441.42-3.215 1.044-.797.645-1.332 1.529-1.683 2.433-.418 1.073-.56 2.111-.617 2.816l.015-.01c.43-.233.994-.466 1.598-.601.603-.134 1.254-.176 1.843.045.59.222 1.076.743 1.253 1.534.72 3.228.027 4.733-.449 5.767-.084.183-.162.352-.223.512-.155.387-.288.781-.398 1.182l.03-.007c.042-.01.084-.02.125-.023.289-.023.515.07.65.126.41.166.693.513.846.91.04.104.068.216.085.331a.383.383 0 0 1 .024.149 62.416 62.416 0 0 0 .016 4.36c.028.628.069 1.181.12 1.617.052.436.125.767.172.88.154.372.379.861.785 1.194.407.331.99.553 2.056.331.829-.173 1.373-.406 1.752-.73.162.209.338.406.527.592-.515.438-1.21.715-2.11.902-1.248.26-2.158-.02-2.745-.5-.586-.477-.854-1.112-1.015-1.5-.11-.269-.169-.617-.224-1.081a23.01 23.01 0 0 1-.124-1.673 58.359 58.359 0 0 1-.036-2.944 3.727 3.727 0 0 1-1.866.887c-.829.137-1.568.002-2.01-.105a2.788 2.788 0 0 1-.625-.234c-.204-.107-.4-.227-.53-.463a.636.636 0 0 1-.068-.445.711.711 0 0 1 .262-.386c.239-.188.554-.293 1.029-.389.864-.172 1.166-.29 1.35-.431.105-.082.219-.218.377-.408.077-.093.166-.2.269-.318a1.28 1.28 0 0 1-.004-.048 3.645 3.645 0 0 1-1.6-.418c-.18.185-1.1 1.13-2.224 2.441-.472.549-.994.863-1.545.886-.55.023-1.049-.247-1.472-.644-.845-.797-1.52-2.168-2.108-3.717-.587-1.55-1.064-3.275-1.404-4.745-.34-1.47-.54-2.656-.57-3.227-.126-2.43.46-4.066 1.464-5.099C5.27 3.588 6.648 3.197 7.992 3.122c2.41-.134 4.7.682 5.163.857.893-.588 2.042-.955 3.478-.931.682.009 1.36.094 2.022.254l.024-.01c.291-.1.588-.183.889-.25a11.915 11.915 0 0 1 2.49-.293l.001-.002c2.018-.019 4.596.53 6.447 2.825.416.516.54 1.27.526 2.198-.016.928-.193 2.039-.516 3.255Zm.529 7.804a5.963 5.963 0 0 0-.482-.256c.132.015.257.06.383.154.037.03.07.064.099.102Zm-6.979-15.3h.176v-.002c1.83.014 4.014.524 5.628 2.526.206.254.367.863.355 1.703-.015.84-.18 1.9-.49 3.071-.58 2.174-1.666 4.723-3.174 7.027l-.027-.033a18.244 18.244 0 0 0-.019-.023c-.03-.037-.06-.075-.092-.112.57-.918.676-1.854.633-2.706-.02-.393-.066-.773-.11-1.134-.058-.47-.112-.91-.098-1.31a9.32 9.32 0 0 1 .13-1.175c.073-.474.146-.943.126-1.515l.003-.006a.5.5 0 0 0 .019-.178 1.55 1.55 0 0 0-.048-.275 5.253 5.253 0 0 0-.272-.77 9.784 9.784 0 0 0-1.361-2.24 8.969 8.969 0 0 0-3.428-2.625 10.82 10.82 0 0 1 2.05-.224ZM8.037 3.9a8.506 8.506 0 0 1 .913-.002c1.42.068 2.73.427 3.468.663-.751.714-1.253 1.596-1.59 2.464a11.234 11.234 0 0 0-.711 3.939v.014a.41.41 0 0 0 0 .022c0 .116.01.262.021.445.014.225.032.504.04.846a14.07 14.07 0 0 1-.126 2.306 3.966 3.966 0 0 0 .217 2.011 4.08 4.08 0 0 0 1.186 1.664 50.979 50.979 0 0 0-2.177 2.39c-.383.446-.697.592-.958.604-.26.01-.546-.115-.875-.424-.655-.618-1.344-1.925-1.913-3.427-.567-1.501-1.04-3.2-1.373-4.645-.334-1.445-.529-2.66-.552-3.094-.118-2.293.423-3.678 1.246-4.522.821-.845 1.97-1.187 3.184-1.254Zm13.851 6.63c.241-.266.7-.47 1.516-.48.297 0 .595.018.89.055-.01.367-.06.705-.114 1.067-.059.397-.122.821-.139 1.34-.017.508.046 1.013.109 1.512.042.335.083.667.1.996.033.663-.024 1.299-.34 1.946a3.707 3.707 0 0 1-.214-.422c-.064-.15-.163-.321-.296-.552l-.055-.095-.046-.08c-.15-.263-.331-.578-.517-.924-.409-.762-.844-1.679-1.055-2.499-.211-.819-.179-1.484.161-1.863Zm-9.127-.26c.243-.056.491-.085.74-.087.215-.004.429.029.631.098.36.136.623.376.755.97.67 3.006.128 4.162-.356 5.195-.1.215-.2.426-.284.646l-.06.155c-.147.381-.288.747-.378 1.108-1.754-.003-3.246-1.655-2.959-3.65.133-.918.15-1.766.135-2.431a24.198 24.198 0 0 0-.057-1.191l.027-.024c.131-.1.272-.189.42-.266.436-.233.902-.41 1.386-.523Zm10.322.151h-.06v-.003a1.616 1.616 0 0 0-.193.015 1.372 1.372 0 0 0-.448.135.46.46 0 0 0-.141.105.197.197 0 0 0-.05.15.3.3 0 0 0 .075.148c.045.053.098.1.156.137.144.098.32.141.493.12a.821.821 0 0 0 .465-.247.779.779 0 0 0 .132-.175.274.274 0 0 0 .042-.157l.001-.01a.19.19 0 0 0-.09-.128.502.502 0 0 0-.166-.064 1.088 1.088 0 0 0-.216-.026Zm-9.265.211a1.502 1.502 0 0 0-.2-.015v.005a1.07 1.07 0 0 0-.37.047c-.104.036-.212.101-.23.227a.32.32 0 0 0 .05.207c.037.07.085.134.142.19.132.142.31.236.505.267a.787.787 0 0 0 .538-.132.774.774 0 0 0 .172-.152.349.349 0 0 0 .09-.18.253.253 0 0 0-.064-.198.533.533 0 0 0-.16-.123 1.347 1.347 0 0 0-.473-.143Zm1.013 8.662h.025v.002a.8.8 0 0 1 .245.07c.13.053.314.24.398.459.083.218.072.42-.029.558-.585.797-1.272 1.104-1.932 1.214-.66.108-1.293 0-1.678-.093a2.041 2.041 0 0 1-.435-.166c-.036-.019-.046-.028-.06-.04a.405.405 0 0 0-.024-.022c.108-.05.27-.112.554-.168.896-.179 1.345-.32 1.69-.587.21-.163.347-.333.517-.545.109-.134.23-.286.393-.463.18-.192.272-.213.336-.22ZM26 29a5 5 0 1 0 0-10 5 5 0 0 0 0 10Zm.5-7.5a.5.5 0 0 0-1 0v4.293l-1.146-1.147a.5.5 0 0 0-.708.708l2 2a.5.5 0 0 0 .708 0l2-2a.5.5 0 0 0-.708-.708L26.5 25.793V21.5Z" clip-rule="evenodd"/>
</svg>
